X: 2
P: Part B
R: jig
M: 6/8
L: 1/8
K: G
|: "F"fcA FAc|"F"f2 e g2 f|"Gm"e2 d B2 G|"Gm"D3-D3|"C7"dBG EGB|"C7"e3 d3| [1 "C"c=Bc dc_B|"F"A3-A3 :| [2 "C7"c=Bc d2 c|"F"F3-F3 ||
"F"AB=B c2 d|"F"c2 A F3|"Bb"d^cd b2 d|"F"c3 c2 A-|"F"AB=B c2 d|"F"c2 A F3|"G"G^FG f2 d|"C7"edc BAG||
"F"AB=B c2 d|"F"c2 A F3|"Bb"d^cd b2 d|"F"c3-c3|"Bb"dfb "Bbm"a2 g|"F"aga "G"g2 f|"C"edc cde|"F" f3 "D7"^f3||

